img/ar-icon.svg

<svg fill="none" height="1200" viewBox="0 0 1200 1200" width="1200" xmlns="http://www.w3.org/2000/svg"><g fill="#000"><path clip-rule="evenodd" d="m605.318 91.5234c-.1-.0629-.202-.1241-.305-.1836-1.537-.8875-3.252-1.3341-4.967-1.3397-1.742-.0079-3.485.4386-5.046 1.3397-.104.0599-.206.1215-.307.1848l-432.375 249.6314c-.105.056-.209.113-.312.173-1.535.886-2.778 2.146-3.641 3.627-.879 1.505-1.365 3.24-1.365 5.044 0 .12.002.239.006.358v499.263c-.004.119-.006.238-.006.357 0 1.782.474 3.496 1.333 4.988.864 1.505 2.119 2.786 3.673 3.683.104.06.208.118.313.174l432.375 249.627c.101.07.203.13.306.19 1.549.89 3.278 1.34 5.006 1.34 1.729 0 3.458-.45 5.007-1.34.103-.06.205-.12.306-.19l432.371-249.628c.11-.055.21-.113.32-.173 1.55-.898 2.81-2.178 3.67-3.684.86-1.492 1.33-3.206 1.33-4.987 0-.119 0-.238 0-.357v-499.264c0-.119 0-.238 0-.357 0-1.787-.47-3.507-1.34-5.003-.86-1.499-2.11-2.773-3.66-3.668-.11-.06-.21-.118-.32-.173zm-15.318 25.8046-402.988 232.665 402.994 232.675zm-9.994 482.661-403-232.665v465.33zm-392.993 249.996 402.987 232.665.006-465.34zm422.994-232.675.006 465.34 402.987-232.665zm413.003 215.344v-465.33l-403.003 232.665zm-10.01-482.661-402.987-232.665-.006 465.34z" fill-rule="evenodd" opacity=".2"/><path clip-rule="evenodd" d="m611.466 81.2167c-.15-.0914-.301-.1811-.453-.2691-3.365-1.9428-7.116-2.9252-10.872-2.9471-3.845-.0247-7.695.9576-11.141 2.947-.154.089-.307.1796-.458.272l-129.433 74.7285 22 38.105 96.891-55.941.002 111.885h44.009l.001-111.885 96.892 55.941 22-38.106zm377.534 268.7763-96.891-55.94 22-38.106 129.431 74.73c.16.084.31.171.47.259 3.4 1.965 6.15 4.761 8.05 8.049 1.9 3.293 2.95 7.079 2.95 11.015v.53 149.459h-44v-111.881l-96.899 55.941-.004-.008-21.996-38.097-.005-.007zm-703.098 94.056-96.896-55.941v111.881h-44v-149.457c-.004-.177-.006-.354-.006-.532 0-3.959 1.064-7.766 2.99-11.073 1.898-3.263 4.634-6.038 8.017-7.991.152-.088.306-.174.46-.258l129.437-74.731 22 38.106-96.892 55.94 96.895 55.944zm22 349.985.005.008-96.895 55.943 96.892 55.94-22 38.106-129.434-74.729c-.156-.085-.31-.172-.464-.26-3.417-1.973-6.175-4.786-8.075-8.093-1.889-3.282-2.931-7.053-2.931-10.971 0-.177.002-.353.006-.529v-149.46h44v111.881l96.896-55.941.004.008zm703.108 17.836v-111.881h44v149.46.529c0 3.926-1.04 7.702-2.94 10.989-1.9 3.299-4.65 6.105-8.06 8.075-.16.088-.31.175-.47.26l-129.431 74.729-22-38.106 96.891-55.94-96.894-55.943.005-.008 21.996-38.097.004-.008zm-433.01 250 .002-111.889.009.001h43.991l.009-.001.001 111.889 96.892-55.94 22 38.1-129.435 74.73c-.15.09-.303.18-.456.27-3.406 1.97-7.206 2.95-11.007 2.95-3.8 0-7.601-.98-11.006-2.95-.154-.09-.306-.18-.457-.27l-129.434-74.73 22-38.1z" fill-rule="evenodd"/><path d="m600.006 574.578 118.891-68.642 22 38.106-118.878 68.634v137.313h-.025-43.975-.025v-137.313l-118.879-68.634 22-38.106z"/><path d="m1055.01 499.989c0 12.15-9.85 22-22 22s-22-9.85-22-22 9.85-22 22-22 22 9.85 22 22z"/><path d="m308.059 794.094c-10.523 6.075-23.978 2.47-30.053-8.052-6.075-10.523-2.47-23.978 8.053-30.053 10.522-6.075 23.977-2.47 30.052 8.053 6.075 10.522 2.47 23.977-8.052 30.052z"/><path d="m458.264 544.094c-10.523-6.075-14.128-19.53-8.053-30.052 6.075-10.523 19.53-14.128 30.053-8.053 10.522 6.075 14.128 19.53 8.052 30.053-6.075 10.522-19.53 14.127-30.052 8.052z"/><path d="m285.059 444.094c-10.523-6.075-14.128-19.53-8.053-30.052 6.075-10.523 19.53-14.128 30.053-8.053 10.522 6.075 14.127 19.53 8.052 30.053-6.075 10.522-19.53 14.127-30.052 8.052z"/><path d="m913.616 755.989c10.522 6.075 14.127 19.53 8.052 30.053-6.075 10.522-19.53 14.127-30.052 8.052-10.523-6.075-14.128-19.53-8.053-30.052 6.075-10.523 19.53-14.128 30.053-8.053z"/><path d="m622.006 750.908c0 12.15-9.849 22-22 22-12.15 0-22-9.85-22-22 0-12.151 9.85-22 22-22 12.151 0 22 9.849 22 22z"/><path d="m622.006 950.908c0 12.15-9.849 22-22 22-12.15 0-22-9.85-22-22 0-12.151 9.85-22 22-22 12.151 0 22 9.849 22 22z"/><path d="m577.006 250.989c0-12.15 9.85-22 22-22 12.151 0 22 9.85 22 22s-9.849 22-22 22c-12.15 0-22-9.85-22-22z"/><path d="m718.41 506.07c10.523-6.075 23.978-2.469 30.053 8.053s2.47 23.977-8.053 30.053c-10.522 6.075-23.977 2.469-30.052-8.053s-2.47-23.977 8.052-30.053z"/><path d="m891.616 406.07c10.522-6.075 23.977-2.469 30.052 8.053s2.47 23.977-8.052 30.053c-10.523 6.075-23.978 2.469-30.053-8.053s-2.47-23.977 8.053-30.053z"/><path d="m1055.01 699.989c0 12.15-9.85 22-22 22s-22-9.85-22-22 9.85-22 22-22 22 9.85 22 22z"/><path d="m189.006 499.989c0 12.15-9.849 22-22 22-12.15 0-22-9.85-22-22s9.85-22 22-22c12.151 0 22 9.85 22 22z"/><path d="m189.006 699.989c0 12.15-9.849 22-22 22-12.15 0-22-9.85-22-22s9.85-22 22-22c12.151 0 22 9.85 22 22z"/><path d="m307.904 905.925c10.522 6.076 14.127 19.531 8.052 30.053-6.075 10.523-19.53 14.128-30.052 8.053-10.523-6.076-14.128-19.53-8.053-30.053 6.075-10.522 19.53-14.128 30.053-8.053z"/><path d="m740.904 155.947c10.522 6.076 14.127 19.531 8.052 30.053s-19.53 14.128-30.052 8.053c-10.523-6.076-14.128-19.531-8.053-30.053s19.53-14.128 30.053-8.053z"/><path d="m481.109 1005.93c10.522 6.07 14.127 19.53 8.052 30.05s-19.53 14.13-30.052 8.05c-10.523-6.07-14.128-19.53-8.053-30.05s19.53-14.13 30.053-8.05z"/><path d="m914.109 255.947c10.522 6.076 14.127 19.531 8.052 30.053s-19.53 14.128-30.052 8.053c-10.523-6.076-14.128-19.531-8.053-30.053s19.53-14.128 30.053-8.053z"/><path d="m481.109 194.053c-10.523 6.075-23.977 2.469-30.053-8.053-6.075-10.522-2.47-23.977 8.053-30.052 10.522-6.076 23.977-2.47 30.053 8.052 6.075 10.522 2.469 23.977-8.053 30.053z"/><path d="m914.109 944.031c-10.523 6.075-23.977 2.469-30.052-8.053-6.076-10.522-2.471-23.977 8.052-30.053 10.522-6.075 23.977-2.469 30.053 8.053 6.075 10.522 2.469 23.977-8.053 30.053z"/><path d="m307.904 294.053c-10.523 6.075-23.977 2.469-30.053-8.053-6.075-10.522-2.47-23.977 8.053-30.053 10.522-6.075 23.977-2.469 30.053 8.053 6.075 10.522 2.469 23.977-8.053 30.053z"/><path d="m740.904 1044.03c-10.523 6.08-23.977 2.47-30.053-8.05-6.075-10.52-2.47-23.98 8.053-30.05 10.522-6.08 23.977-2.47 30.053 8.05 6.075 10.52 2.469 23.98-8.053 30.05z"/></g></svg>

<svg width="1200" height="1200" viewBox="0 0 1200 1200" fill="none" xmlns="http://www.w3.org/2000/svg">
<path opacity="0.2" fill-rule="evenodd" clip-rule="evenodd" d="M605.318 91.5234C605.218 91.4605 605.116 91.3993 605.013 91.3398C603.476 90.4523 601.761 90.0057 600.046 90.0001C598.304 89.9922 596.561 90.4387 595 91.3398C594.896 91.3997 594.794 91.4613 594.693 91.5246L162.318 341.156C162.213 341.212 162.109 341.269 162.006 341.329C160.471 342.215 159.228 343.475 158.365 344.956C157.486 346.461 157 348.196 157 350C157 350.12 157.002 350.239 157.006 350.358L157.006 849.621C157.002 849.74 157 849.859 157 849.978C157 851.76 157.474 853.474 158.333 854.966C159.197 856.471 160.452 857.752 162.006 858.649C162.11 858.709 162.214 858.767 162.319 858.823L594.694 1108.45C594.795 1108.52 594.897 1108.58 595 1108.64C596.549 1109.53 598.278 1109.98 600.006 1109.98C601.735 1109.98 603.464 1109.53 605.013 1108.64C605.116 1108.58 605.218 1108.52 605.319 1108.45L1037.69 858.822C1037.8 858.767 1037.9 858.709 1038.01 858.649C1039.56 857.751 1040.82 856.471 1041.68 854.965C1042.54 853.473 1043.01 851.759 1043.01 849.978C1043.01 849.859 1043.01 849.74 1043.01 849.621V350.357C1043.01 350.238 1043.01 350.119 1043.01 350C1043.01 348.213 1042.54 346.493 1041.67 344.997C1040.81 343.498 1039.56 342.224 1038.01 341.329C1037.9 341.269 1037.8 341.211 1037.69 341.156L605.318 91.5234ZM590 117.328L187.012 349.993L590.006 582.668L590 117.328ZM580.006 599.989L177.006 367.324L177.006 832.654L580.006 599.989ZM187.013 849.985L590 1082.65L590.006 617.31L187.013 849.985ZM610.007 617.31L610.013 1082.65L1013 849.985L610.007 617.31ZM1023.01 832.654V367.324L620.007 599.989L1023.01 832.654ZM1013 349.993L610.013 117.328L610.007 582.668L1013 349.993Z" fill="black"/>
<path fill-rule="evenodd" clip-rule="evenodd" d="M611.466 81.2167C611.316 81.1253 611.165 81.0356 611.013 80.9476C607.648 79.0048 603.897 78.0224 600.141 78.0005C596.296 77.9758 592.446 78.9581 589 80.9475C588.846 81.0365 588.693 81.1271 588.542 81.2195L459.109 155.948L481.109 194.053L578 138.112L578.002 249.997L622.011 249.997L622.012 138.112L718.904 194.053L740.904 155.947L611.466 81.2167ZM989 349.993L892.109 294.053L914.109 255.947L1043.54 330.677C1043.7 330.761 1043.85 330.848 1044.01 330.936C1047.41 332.901 1050.16 335.697 1052.06 338.985C1053.96 342.278 1055.01 346.064 1055.01 350C1055.01 350.177 1055.01 350.353 1055.01 350.53V499.989H1011.01V388.108L914.111 444.049L914.107 444.041L892.111 405.944L892.106 405.937L989 349.993ZM285.902 444.049L189.006 388.108L189.006 499.989L145.006 499.989L145.006 350.532C145.002 350.355 145 350.178 145 350C145 346.041 146.064 342.234 147.99 338.927C149.888 335.664 152.624 332.889 156.007 330.936C156.159 330.848 156.313 330.762 156.467 330.678L285.904 255.947L307.904 294.053L211.012 349.993L307.907 405.937L285.902 444.049ZM307.902 794.034L307.907 794.042L211.012 849.985L307.904 905.925L285.904 944.031L156.47 869.302C156.314 869.217 156.16 869.13 156.006 869.042C152.589 867.069 149.831 864.256 147.931 860.949C146.042 857.667 145 853.896 145 849.978C145 849.801 145.002 849.625 145.006 849.449L145.006 699.989H189.006L189.006 811.87L285.902 755.929L285.906 755.937L307.902 794.034ZM1011.01 811.87V699.989H1055.01V849.449C1055.01 849.625 1055.01 849.801 1055.01 849.978C1055.01 853.904 1053.97 857.68 1052.07 860.967C1050.17 864.266 1047.42 867.072 1044.01 869.042C1043.85 869.13 1043.7 869.217 1043.54 869.302L914.109 944.031L892.109 905.925L989 849.985L892.106 794.042L892.111 794.034L914.107 755.937L914.111 755.929L1011.01 811.87ZM578 1061.87L578.002 949.981L578.011 949.982H622.002L622.011 949.981L622.012 1061.87L718.904 1005.93L740.904 1044.03L611.469 1118.76C611.319 1118.85 611.166 1118.94 611.013 1119.03C607.607 1121 603.807 1121.98 600.006 1121.98C596.206 1121.98 592.405 1121 589 1119.03C588.846 1118.94 588.694 1118.85 588.543 1118.76L459.109 1044.03L481.109 1005.93L578 1061.87Z" fill="black"/>
<path d="M600.006 574.578L718.897 505.936L740.897 544.042L622.019 612.676V749.989L621.994 749.989L578.019 749.989L577.994 749.989V612.676L459.115 544.042L481.115 505.936L600.006 574.578Z" fill="black"/>
<path d="M1055.01 499.989C1055.01 512.139 1045.16 521.989 1033.01 521.989C1020.86 521.989 1011.01 512.139 1011.01 499.989C1011.01 487.839 1020.86 477.989 1033.01 477.989C1045.16 477.989 1055.01 487.839 1055.01 499.989Z" fill="black"/>
<path d="M308.059 794.094C297.536 800.169 284.081 796.564 278.006 786.042C271.931 775.519 275.536 762.064 286.059 755.989C296.581 749.914 310.036 753.519 316.111 764.042C322.186 774.564 318.581 788.019 308.059 794.094Z" fill="black"/>
<path d="M458.264 544.094C447.741 538.019 444.136 524.564 450.211 514.042C456.286 503.519 469.741 499.914 480.264 505.989C490.786 512.064 494.392 525.519 488.316 536.042C482.241 546.564 468.786 550.169 458.264 544.094Z" fill="black"/>
<path d="M285.059 444.094C274.536 438.019 270.931 424.564 277.006 414.042C283.081 403.519 296.536 399.914 307.059 405.989C317.581 412.064 321.186 425.519 315.111 436.042C309.036 446.564 295.581 450.169 285.059 444.094Z" fill="black"/>
<path d="M913.616 755.989C924.138 762.064 927.743 775.519 921.668 786.042C915.593 796.564 902.138 800.169 891.616 794.094C881.093 788.019 877.488 774.564 883.563 764.042C889.638 753.519 903.093 749.914 913.616 755.989Z" fill="black"/>
<path d="M622.006 750.908C622.006 763.058 612.157 772.908 600.006 772.908C587.856 772.908 578.006 763.058 578.006 750.908C578.006 738.757 587.856 728.908 600.006 728.908C612.157 728.908 622.006 738.757 622.006 750.908Z" fill="black"/>
<path d="M622.006 950.908C622.006 963.058 612.157 972.908 600.006 972.908C587.856 972.908 578.006 963.058 578.006 950.908C578.006 938.757 587.856 928.908 600.006 928.908C612.157 928.908 622.006 938.757 622.006 950.908Z" fill="black"/>
<path d="M577.006 250.989C577.006 238.839 586.856 228.989 599.006 228.989C611.157 228.989 621.006 238.839 621.006 250.989C621.006 263.139 611.157 272.989 599.006 272.989C586.856 272.989 577.006 263.139 577.006 250.989Z" fill="black"/>
<path d="M718.41 506.07C728.933 499.995 742.388 503.601 748.463 514.123C754.538 524.645 750.933 538.1 740.41 544.176C729.888 550.251 716.433 546.645 710.358 536.123C704.283 525.601 707.888 512.146 718.41 506.07Z" fill="black"/>
<path d="M891.616 406.07C902.138 399.995 915.593 403.601 921.668 414.123C927.743 424.645 924.138 438.1 913.616 444.176C903.093 450.251 889.638 446.645 883.563 436.123C877.488 425.601 881.093 412.146 891.616 406.07Z" fill="black"/>
<path d="M1055.01 699.989C1055.01 712.139 1045.16 721.989 1033.01 721.989C1020.86 721.989 1011.01 712.139 1011.01 699.989C1011.01 687.839 1020.86 677.989 1033.01 677.989C1045.16 677.989 1055.01 687.839 1055.01 699.989Z" fill="black"/>
<path d="M189.006 499.989C189.006 512.139 179.157 521.989 167.006 521.989C154.856 521.989 145.006 512.139 145.006 499.989C145.006 487.839 154.856 477.989 167.006 477.989C179.157 477.989 189.006 487.839 189.006 499.989Z" fill="black"/>
<path d="M189.006 699.989C189.006 712.139 179.157 721.989 167.006 721.989C154.856 721.989 145.006 712.139 145.006 699.989C145.006 687.839 154.856 677.989 167.006 677.989C179.157 677.989 189.006 687.839 189.006 699.989Z" fill="black"/>
<path d="M307.904 905.925C318.426 912.001 322.031 925.456 315.956 935.978C309.881 946.501 296.426 950.106 285.904 944.031C275.381 937.955 271.776 924.501 277.851 913.978C283.926 903.456 297.381 899.85 307.904 905.925Z" fill="black"/>
<path d="M740.904 155.947C751.426 162.023 755.031 175.478 748.956 186C742.881 196.522 729.426 200.128 718.904 194.053C708.381 187.977 704.776 174.522 710.851 164C716.926 153.478 730.381 149.872 740.904 155.947Z" fill="black"/>
<path d="M481.109 1005.93C491.631 1012 495.236 1025.46 489.161 1035.98C483.086 1046.5 469.631 1050.11 459.109 1044.03C448.586 1037.96 444.981 1024.5 451.056 1013.98C457.131 1003.46 470.586 999.85 481.109 1005.93Z" fill="black"/>
<path d="M914.109 255.947C924.631 262.023 928.236 275.478 922.161 286C916.086 296.522 902.631 300.128 892.109 294.053C881.586 287.977 877.981 274.522 884.056 264C890.131 253.478 903.586 249.872 914.109 255.947Z" fill="black"/>
<path d="M481.109 194.053C470.586 200.128 457.132 196.522 451.056 186C444.981 175.478 448.586 162.023 459.109 155.948C469.631 149.872 483.086 153.478 489.162 164C495.237 174.522 491.631 187.977 481.109 194.053Z" fill="black"/>
<path d="M914.109 944.031C903.586 950.106 890.132 946.5 884.057 935.978C877.981 925.456 881.586 912.001 892.109 905.925C902.631 899.85 916.086 903.456 922.162 913.978C928.237 924.5 924.631 937.955 914.109 944.031Z" fill="black"/>
<path d="M307.904 294.053C297.381 300.128 283.927 296.522 277.851 286C271.776 275.478 275.381 262.023 285.904 255.947C296.426 249.872 309.881 253.478 315.957 264C322.032 274.522 318.426 287.977 307.904 294.053Z" fill="black"/>
<path d="M740.904 1044.03C730.381 1050.11 716.927 1046.5 710.851 1035.98C704.776 1025.46 708.381 1012 718.904 1005.93C729.426 999.85 742.881 1003.46 748.957 1013.98C755.032 1024.5 751.426 1037.96 740.904 1044.03Z" fill="black"/>
</svg>
